homeworks/serhii.ripchanskyi_Ripchanskiy/2-dom/images/avatar.svg

<?xml version="1.0" encoding="iso-8859-1"?>
<!-- Generator: Adobe Illustrator 18.0.0, SVG Export Plug-In . SVG Version: 6.00 Build 0)  -->
<!DOCTYPE svg PUBLIC "-//W3C//DTD SVG 1.1//EN" "http://www.w3.org/Graphics/SVG/1.1/DTD/svg11.dtd">
<svg version="1.1" id="Capa_1" xmlns="http://www.w3.org/2000/svg" xmlns:xlink="http://www.w3.org/1999/xlink" x="0px" y="0px"
	 viewBox="0 0 198.496 198.496" style="enable-background:new 0 0 198.496 198.496;" xml:space="preserve">
<g>
	<g>
		<rect x="84.55" y="148.231" style="fill:#FDCC9B;" width="29.395" height="32.922"/>
		<path style="fill:#FCBC85;" d="M84.551,152.108c0,0,12.365,7.874,29.395,6.05v-9.928H84.551V152.108z"/>
		<ellipse style="fill:#FCBC85;" cx="42.164" cy="97.181" rx="14.343" ry="16.364"/>
		<ellipse style="fill:#FCBC85;" cx="156.332" cy="97.181" rx="14.343" ry="16.364"/>
		<path style="fill:#FDCC9B;" d="M156.274,65.925c0-24.103-17.637-41.741-57.026-41.741c-39.389,0-57.026,17.637-57.026,41.741
			c0,24.104-4.115,87.597,57.026,87.597C160.389,153.522,156.274,90.029,156.274,65.925z"/>
		<g>
			<g>
				<ellipse style="fill:#3B2519;" cx="71.472" cy="93.262" rx="6.173" ry="6.761"/>
				<circle style="fill:#FFFFFF;" cx="68.781" cy="90.277" r="1.846"/>
			</g>
			<path style="fill:#51362A;" d="M61.597,76.507c2.919,1.46,7.606-4.96,18.335,0.625c1.956,1.018,3.123-8.708-8.377-8.708
				C61.597,68.424,59.833,75.626,61.597,76.507z"/>
			<g>
				<ellipse style="fill:#3B2519;" cx="127.786" cy="93.262" rx="6.173" ry="6.761"/>
				<circle style="fill:#FFFFFF;" cx="125.095" cy="90.277" r="1.846"/>
			</g>
			<path style="fill:#51362A;" d="M136.899,76.507c-2.919,1.46-7.606-4.96-18.335,0.625c-1.956,1.018-3.123-8.708,8.378-8.708
				C136.899,68.424,138.662,75.626,136.899,76.507z"/>
		</g>
		<path style="fill:#FCBC85;" d="M99.248,117.043c-6.1,0-9.774-4.556-9.774-2.352c0,2.205,1.764,6.394,9.774,6.394
			c8.01,0,9.774-4.189,9.774-6.394C109.022,112.486,105.347,117.043,99.248,117.043z"/>
		<path style="fill:#FCBC85;" d="M99.248,137.313c-2.11,0-3.381-1.576-3.381-0.813s0.61,2.211,3.381,2.211
			c2.771,0,3.38-1.448,3.38-2.211S101.357,137.313,99.248,137.313z"/>
		<path style="fill:#F7945E;" d="M99.248,131.696c-9.668,0-15.493-3.937-15.493-2.939c0,0.998,2.796,4.924,15.493,4.924
			c12.697,0,15.493-3.926,15.493-4.924C114.74,127.759,108.916,131.696,99.248,131.696z"/>
	</g>
	<path style="fill:#F7941E;" d="M99.248,161.458v37.038H27.821C27.821,183.504,65.444,161.458,99.248,161.458z"/>
	<path style="fill:#F7941E;" d="M99.248,161.458v37.038h71.427C170.675,183.504,133.052,161.458,99.248,161.458z"/>
	<path style="fill:#F36C21;" d="M99.248,161.458c-7.19,0-14.552,1.005-21.689,2.72c0.048,0.063,7.916,10.214,21.689,10.214
		c12.754,0,21.233-8.693,22.462-10.03C114.332,162.531,106.698,161.458,99.248,161.458z"/>
	<path style="fill:#FDCC9B;" d="M84.55,162.74c0,0,4.299,5.332,14.697,5.332c10.398,0,14.698-5.332,14.698-5.332
		S98.697,157.189,84.55,162.74z"/>
	<path style="fill:#51362A;" d="M146.132,19.041c0,0-21.164-26.896-65.152-16.755C36.993,12.426,33.697,38.882,35.02,64.621
		c1.323,25.74,4.85,40.84,9.022,38.974c4.172-1.867,2.001-18.857,2.442-22.778c0.441-3.921,4.409-21.653,31.162-19.007
		c26.752,2.646,49.296-7.055,49.296-7.055s9.075,11.471,15.047,13.669c11.934,4.391,8.02,33.67,12.696,33.67
		S182.288,34.473,146.132,19.041z"/>
</g>
<g>
</g>
<g>
</g>
<g>
</g>
<g>
</g>
<g>
</g>
<g>
</g>
<g>
</g>
<g>
</g>
<g>
</g>
<g>
</g>
<g>
</g>
<g>
</g>
<g>
</g>
<g>
</g>
<g>
</g>
</svg>

<svg xmlns="http://www.w3.org/2000/svg" viewBox="0 0 198.5 198.5">
    <path fill="#fdcc9b" d="M84.55 148.23h29.39v32.92H84.55z"/>
    <path d="M84.55 152.1s12.37 7.88 29.4 6.06v-9.93h-29.4v3.88z" fill="#fcbc85"/>
    <ellipse cx="42.16" cy="97.18" rx="14.34" ry="16.36" fill="#fcbc85"/>
    <ellipse cx="156.33" cy="97.18" rx="14.34" ry="16.36" fill="#fcbc85"/>
    <path d="M156.27 65.92c0-24.1-17.63-41.74-57.02-41.74-39.4 0-57.03 17.64-57.03 41.74s-4.11 87.6 57.03 87.6 57.02-63.5 57.02-87.6z" fill="#fdcc9b"/>
    <ellipse cx="71.47" cy="93.26" rx="6.17" ry="6.76" fill="#3b2519"/>
    <circle cx="68.78" cy="90.28" r="1.85" fill="#fff"/>
    <path d="M61.6 76.5c2.92 1.47 7.6-4.95 18.33.63 1.96 1.02 3.12-8.7-8.38-8.7-9.95 0-11.72 7.2-9.95 8.08z" fill="#51362a"/>
    <ellipse cx="127.79" cy="93.26" rx="6.17" ry="6.76" fill="#3b2519"/>
    <circle cx="125.09" cy="90.28" r="1.85" fill="#fff"/>
    <path d="M136.9 76.5c-2.92 1.47-7.6-4.95-18.34.63-1.95 1.02-3.12-8.7 8.38-8.7 9.96 0 11.72 7.2 9.96 8.08z" fill="#51362a"/>
    <path d="M99.25 117.04c-6.1 0-9.78-4.55-9.78-2.35 0 2.2 1.77 6.4 9.78 6.4 8 0 9.77-4.2 9.77-6.4s-3.67 2.35-9.77 2.35zM99.25 137.31c-2.11 0-3.38-1.57-3.38-.81s.6 2.21 3.38 2.21c2.77 0 3.38-1.45 3.38-2.21s-1.27.81-3.38.81z" fill="#fcbc85"/>
    <path d="M99.25 131.7c-9.67 0-15.5-3.94-15.5-2.94s2.8 4.92 15.5 4.92 15.5-3.92 15.5-4.92c-.01-1-5.83 2.94-15.5 2.94z" fill="#f7945e"/>
    <path d="M99.25 161.46v37.04H27.82c0-15 37.62-37.04 71.43-37.04zM99.25 161.46v37.04h71.43c0-15-37.63-37.04-71.43-37.04z" fill="#f7941e"/>
    <path d="M99.25 161.46c-7.2 0-14.55 1-21.7 2.72.06.06 7.93 10.21 21.7 10.21 12.75 0 21.23-8.7 22.46-10.03a94.03 94.03 0 00-22.46-2.9z" fill="#f36c21"/>
    <path d="M84.55 162.74s4.3 5.33 14.7 5.33c10.4 0 14.7-5.33 14.7-5.33s-15.25-5.55-29.4 0z" fill="#fdcc9b"/>
    <path d="M146.13 19.04S124.97-7.86 80.98 2.3C36.99 12.43 33.7 38.89 35.02 64.62c1.32 25.74 4.85 40.84 9.02 38.97 4.17-1.86 2-18.85 2.44-22.77.45-3.92 4.41-21.66 31.17-19.01 26.75 2.65 49.3-7.05 49.3-7.05s9.07 11.47 15.04 13.66c11.93 4.4 8.02 33.67 12.7 33.67s27.6-67.62-8.56-83.05z" fill="#51362a"/>
</svg>
